X:1
T:Title
%%score { 1 | 2 }
L:1/8
Q:1/4=100
M:2/4
K:F
V:1 treble nm="Grand Piano"
V:2 bass 
V:1
 [A,CF]>[A,CF] [CEG][CEG] | [CFA][CAc] [CFA][A,CF] | [B,DF]>[K:bass][F,B,D] [A,C][K:treble][A,CF] | %3
w: J.~L.~Remsen * * *|||
 [CEG][CFA] [CEG]2 | [A,CF]>[A,CF] [CEG][CEG] | [CFA][CAc] [CFA][A,CF] | %6
w: |||
 [B,DF]>[K:bass][F,B,D] [A,C][K:treble][CFA] | [B,EG]>F F2 | c>A cd | d>c cA | c>A cd | %11
w: |||||
 c>A [CEG]2 | cc AF | [DG][DF] [DF][B,D] | [DF]>D CA | [EG]>F F2 |] %16
w: |||||
V:2
 F,>F, C,C, | F,F, F,F, | B,,>B,, F,F, | C,C, C,2 | F,>F, C,C, | F,F, F,F, | B,,>B,, F,F, | %7
 C,>[F,A,C] [F,A,C]2 | [F,A,F]>[F,CF] [F,A,F][F,B,F] | [F,B,F]>[F,A,F] [F,A,F][F,CF] | %10
 [F,A,F]>[F,CF] [F,A,F][F,B,F] | [F,A,F]>[F,CF] C,B, | [A,CF][A,CF][K:bass] [F,CF][F,A,C] | %13
 [B,,B,][B,,B,] [B,,B,][B,,F,] | [B,,B,]>[B,,F,B,] [F,A,][F,CF] | [C,B,]>[F,A,C] [F,A,C]2 |] %16

